map-marker-question-outline.svg

<svg fill="currentColor" viewBox="0 0 24 24"><path d="M12 1C7.59 1 4 4.59 4 9c0 5.57 6.96 13.34 7.26 13.67l.74.83.74-.83C13.04 22.34 20 14.57 20 9c0-4.41-3.59-8-8-8m0 19.47C9.82 17.86 6 12.54 6 9a6 6 0 0 1 6-6 6 6 0 0 1 6 6c0 3.83-4.25 9.36-6 11.47M11.13 14h1.75v1.75h-1.75M12 5a3.5 3.5 0 0 0-3.5 3.5h1.75A1.75 1.75 0 0 1 12 6.75a1.75 1.75 0 0 1 1.75 1.75c0 1.76-2.62 1.54-2.62 4.38h1.75c0-1.97 2.62-2.19 2.62-4.38A3.5 3.5 0 0 0 12 5"/></svg>

<svg  viewBox="0 0 24 24" fill="currentColor"><path  d="M12,1C7.59,1 4,4.59 4,9C4,14.57 10.96,22.34 11.26,22.67L12,23.5L12.74,22.67C13.04,22.34 20,14.57 20,9C20,4.59 16.41,1 12,1M12,20.47C9.82,17.86 6,12.54 6,9A6,6 0 0,1 12,3A6,6 0 0,1 18,9C18,12.83 13.75,18.36 12,20.47M11.13,14H12.88V15.75H11.13M12,5A3.5,3.5 0 0,0 8.5,8.5H10.25A1.75,1.75 0 0,1 12,6.75A1.75,1.75 0 0,1 13.75,8.5C13.75,10.26 11.13,10.04 11.13,12.88H12.88C12.88,10.91 15.5,10.69 15.5,8.5A3.5,3.5 0 0,0 12,5Z"/></svg>
